dist/assets/images/product-icons/control.svg

<svg width="98" height="106" viewBox="0 0 98 106" fill="none" xmlns="http://www.w3.org/2000/svg">
<path opacity="0.6" fill-rule="evenodd" clip-rule="evenodd" d="M8.92036 0.120794C5.19059 0.767604 2.00233 3.45902 0.602269 7.14271L0.13641 8.36861L0.0814322 44.4307C0.0291419 78.6451 0.0450563 80.5154 0.391454 80.9335C0.592142 81.1758 1.05263 81.4316 1.41453 81.5016C1.94528 81.6044 2.17511 81.5261 2.60294 81.0974L3.13329 80.5659V45.2875C3.13329 6.06987 3.04193 8.60285 4.53562 6.40312C4.97751 5.75237 5.79286 4.93469 6.44226 4.49127C8.58761 3.02657 7.83984 3.07048 29.6135 3.13386L49.1199 3.19081L50.4945 3.84342C52.8606 4.96679 54.3148 6.84965 54.7852 9.39878C55.1023 11.1184 55.1023 94.8839 54.7852 96.6036C54.3212 99.1186 52.8294 101.05 50.4962 102.158L49.1199 102.812L29.6135 102.869C7.83984 102.932 8.58761 102.976 6.44226 101.511C5.79286 101.068 4.97751 100.25 4.53562 99.5993C3.29987 97.7794 3.13329 96.7395 3.13329 90.8496V85.706L2.62589 85.1977C1.9736 84.5439 1.18676 84.5501 0.523937 85.2143L0 85.7391L0.0812257 91.6866C0.156044 97.1609 0.198001 97.7301 0.610537 98.8456C1.18594 100.402 1.7572 101.325 2.91999 102.578C4.13259 103.885 5.27616 104.662 7.0065 105.357L8.40366 105.918L28.3941 105.976C50.4222 106.04 49.7658 106.073 52.3681 104.757C53.988 103.937 55.9418 101.978 56.8334 100.279C58.1595 97.751 58.1031 99.3315 58.107 64.6512L58.1105 33.1185H59.8349C61.2409 33.1185 61.7272 33.0296 62.47 32.6367C63.6026 32.0375 64.6832 30.6528 64.8543 29.5812L64.9839 28.7691H67.5259C70.0261 28.7691 70.0751 28.7782 70.4963 29.3149L70.9248 29.8606L70.9283 61.8832C70.9324 97.5596 70.8458 95.3758 72.3783 98.4759C76.3245 106.459 86.9882 108.486 93.5138 102.494C95.054 101.08 95.8515 100.019 96.7715 98.1613C98.0734 95.5316 97.9936 98.8257 97.9969 47.5796L98 0.839058L97.4554 0.409922C96.7764 -0.125255 96.1231 -0.136439 95.4911 0.376577L95.0031 0.772368L94.8998 47.7534C94.7859 99.5284 94.9128 94.8479 93.5499 97.5426C91.8839 100.838 87.4156 103.213 83.6063 102.829C78.999 102.365 75.0452 98.7762 74.2461 94.3337C74.0955 93.4963 74.0243 82.9408 74.0229 61.1958L74.0208 29.2869L73.5285 28.2271C72.573 26.1709 70.9586 25.4553 67.275 25.4553H64.931V23.8829V22.3107L67.9795 22.393C70.5385 22.4619 71.2201 22.551 72.2237 22.9472C73.895 23.6073 75.6551 25.2853 76.4223 26.9503L77.0219 28.2513L77.1252 34.0971C77.2254 39.7703 77.242 39.9561 77.682 40.3966C78.2768 40.992 79.2813 40.9914 79.8753 40.3955C80.3203 39.9488 80.3285 39.8343 80.323 34.3029C80.3178 29.4696 80.2636 28.4883 79.9429 27.4229C78.7435 23.4399 75.6985 20.449 71.9389 19.5609C71.0994 19.3625 69.5747 19.2469 67.7729 19.2451C64.9657 19.242 64.931 19.2362 64.9264 18.776C64.913 17.395 63.1785 15.3218 61.6904 14.9075C61.256 14.7868 60.2728 14.6874 59.5056 14.6868L58.1105 14.6855L58.107 12.252C58.1049 10.9134 57.9729 9.20119 57.8133 8.44689C57.06 4.88602 54.5628 2.0109 50.98 0.579547L49.7399 0.0841353L29.5885 0.057625C18.5052 0.0431272 9.20455 0.0715015 8.92036 0.120794ZM89.2458 0.408472L88.7029 0.836365L88.6495 47.164L88.596 93.4915L88.1268 94.3716C87.8689 94.8556 87.2712 95.508 86.7985 95.8213C86.0625 96.3095 85.7277 96.3911 84.4624 96.3911C82.7796 96.3911 81.9173 95.957 81.0335 94.6646L80.5354 93.9362L80.4321 69.5855C80.3504 50.3437 80.2734 45.1372 80.0644 44.771C79.533 43.839 77.8942 43.9349 77.3887 44.9274C77.1808 45.3356 77.1372 50.4365 77.1777 69.6737L77.2285 93.9058L77.7254 95.142C78.3231 96.6293 79.9846 98.3908 81.3686 99.0042C83.3597 99.8867 85.9335 99.8656 87.7203 98.9522C89.0767 98.2588 90.4491 96.8184 91.101 95.404L91.6962 94.1129L91.7497 47.5568L91.8031 1.00081L91.294 0.490696C90.6727 -0.131675 89.9669 -0.160049 89.2458 0.408472ZM14.9689 8.17019C11.5463 9.0937 9.09356 11.5799 8.19533 15.0362C7.72988 16.8268 7.72988 89.1755 8.19533 90.9662C9.10514 94.4668 11.564 96.9308 15.0574 97.8425C16.0443 98.1002 18.3436 98.1516 28.8804 98.1516C36.4747 98.1516 41.9639 98.0685 42.633 97.9434C46.2921 97.2589 49.3505 94.1406 50.0326 90.3985C50.3471 88.6733 50.3471 17.3291 50.0326 15.6038C49.3505 11.8618 46.2921 8.74348 42.633 8.05897C41.958 7.93284 36.5053 7.85621 28.7853 7.8645C18.5096 7.87547 15.8419 7.9345 14.9689 8.17019ZM43.4804 11.6422C44.928 12.3547 46.1815 13.7359 46.6802 15.1679C47.034 16.1846 47.0531 18.1043 47.0531 53.0012C47.0531 87.8981 47.034 89.8178 46.6802 90.8345C46.1815 92.2665 44.928 93.6477 43.4804 94.3602L42.2994 94.9413H29.0718H15.8442L14.7666 94.4529C13.4244 93.8449 12.0074 92.3532 11.4867 91.0004C11.1015 89.9992 11.0905 88.9438 11.0905 53.0012C11.0905 17.1371 11.1023 16.0011 11.4845 15.0084C12.1911 13.1721 13.9456 11.6482 15.8925 11.1791C16.3224 11.0756 22.4094 11.0072 29.4852 11.0263L42.2994 11.0611L43.4804 11.6422ZM21.3066 15.9982C19.1724 16.5887 17.3761 18.1428 16.3888 20.2527L15.8442 21.4166L15.7793 31.1509C15.7094 41.6421 15.7795 42.6094 16.7352 44.3785C17.4332 45.6707 19.0453 47.083 20.4945 47.672C21.5978 48.1204 21.8503 48.1341 29.0718 48.1328C35.5953 48.1316 36.6208 48.0879 37.393 47.7787C39.5235 46.9254 41.2058 45.2148 41.9325 43.1634C42.2649 42.2254 42.2994 41.1716 42.2994 31.9793C42.2994 22.8374 42.2634 21.7281 41.9369 20.7953C41.2234 18.7567 39.2289 16.75 37.2723 16.1017C36.1558 15.7318 22.5872 15.6438 21.3066 15.9982ZM61.4422 18.3928C61.7989 18.8342 61.8308 19.2909 61.8308 23.9633C61.8308 28.9042 61.8175 29.0672 61.3814 29.5325C60.9968 29.9426 60.7287 30.0118 59.5213 30.0118H58.1105V23.8786V17.7454L59.5821 17.8288C60.8151 17.8986 61.1169 17.9902 61.4422 18.3928ZM36.7316 19.2788C37.6912 19.8059 38.6676 20.9024 38.9055 21.7201C39.0427 22.1917 39.096 26.0013 39.0555 32.4263L38.9925 42.4004L38.3605 43.1826C36.9581 44.9184 37.5139 44.8203 29.0931 44.8203H21.6009L20.8593 44.311C19.8276 43.6025 19.0959 42.3851 18.9425 41.1213C18.8714 40.5358 18.8429 36.0025 18.8789 31.0473L18.9444 22.038L19.5109 21.0722C20.1029 20.0632 21.1193 19.2933 22.222 19.0189C22.5791 18.9299 25.8476 18.8739 29.4852 18.8942C35.2406 18.9265 36.181 18.9765 36.7316 19.2788ZM25.9298 27.1739C23.7952 29.313 23.5947 29.5795 23.5947 30.2806C23.5947 31.2306 24.1817 31.8758 25.0461 31.8758C25.4908 31.8758 25.9375 31.6295 26.5962 31.021L27.5217 30.1661V34.195C27.5217 38.1386 27.5318 38.2335 27.9999 38.6744C28.6768 39.3115 29.6517 39.2693 30.1934 38.579C30.5928 38.0705 30.6219 37.7656 30.6219 34.0998V30.1661L31.5474 31.021C32.6294 32.0204 33.4071 32.1349 34.0995 31.3965C35.0131 30.4219 34.7706 29.9163 32.1172 27.2642C28.8843 24.0331 29.0615 24.0358 25.9298 27.1739ZM21.3262 58.0895C19.2346 58.6663 17.5255 60.0254 16.5961 61.8511C15.7902 63.4338 15.7117 64.6842 15.7793 74.8515L15.8442 84.5857L16.394 85.7611C17.1638 87.4066 18.4339 88.7066 20.0514 89.5046L21.4155 90.1777H28.8606C34.2682 90.1777 36.5408 90.1061 37.1648 89.916C39.1762 89.3033 41.2032 87.3032 41.9369 85.2071C42.2634 84.2742 42.2994 83.1649 42.2994 74.023C42.2994 64.8308 42.2649 63.777 41.9325 62.839C41.2042 60.783 39.5055 59.0588 37.393 58.2316C36.119 57.7327 23.0398 57.6169 21.3262 58.0895ZM37.1572 61.6098C37.4713 61.8449 38.0128 62.3894 38.3605 62.8197L38.9925 63.602L39.0555 73.5761C39.096 80.0011 39.0427 83.8107 38.9055 84.2823C38.6676 85.1 37.6912 86.1964 36.7316 86.7235C36.1744 87.0296 35.26 87.0711 29.0718 87.0711H22.0446L21.0685 86.4959C20.4354 86.1231 19.8904 85.577 19.5184 84.9426L18.9444 83.9644V74.023C18.9444 63.1097 18.8944 63.5734 20.2169 62.2365C21.3491 61.092 21.4254 61.0827 29.3153 61.1345C36.3007 61.1802 36.6084 61.1989 37.1572 61.6098ZM27.971 67.3569C27.5417 67.8151 27.5217 68.0145 27.5217 71.8363V75.8363L26.5962 74.9813C25.9375 74.3728 25.4908 74.1266 25.0461 74.1266C24.1817 74.1266 23.5947 74.7717 23.5947 75.7218C23.5947 76.4228 23.7952 76.6894 25.9298 78.8284C29.0615 81.9666 28.8843 81.9693 32.1172 78.7381C34.1741 76.6821 34.5488 76.2091 34.5488 75.6675C34.5488 74.8767 33.8108 74.1266 33.0324 74.1266C32.6639 74.1266 32.1567 74.4184 31.5474 74.9813L30.6219 75.8363V71.9026C30.6219 68.2367 30.5928 67.9319 30.1934 67.4234C29.6336 66.7101 28.6063 66.6795 27.971 67.3569Z" fill="#231F20"/>
</svg>

<svg width="98" height="106" fill="none" xmlns="http://www.w3.org/2000/svg"><path opacity=".6" fill-rule="evenodd" clip-rule="evenodd" d="M8.92.12C5.19.769 2.002 3.46.602 7.144L.136 8.369.081 44.43C.03 78.645.045 80.515.391 80.933c.201.243.662.499 1.024.569.53.102.76.024 1.188-.405l.53-.531V45.287c0-39.217-.091-36.684 1.403-38.884.442-.65 1.257-1.468 1.906-1.912 2.146-1.464 1.398-1.42 23.171-1.357l19.507.057 1.375.652c2.366 1.124 3.82 3.007 4.29 5.556.317 1.72.317 85.485 0 87.205-.464 2.515-1.956 4.446-4.289 5.554l-1.376.654-19.506.057c-21.774.063-21.026.107-23.172-1.358-.65-.443-1.464-1.261-1.906-1.912-1.236-1.82-1.403-2.86-1.403-8.75v-5.143l-.507-.508c-.652-.654-1.44-.648-2.102.016L0 85.74l.081 5.948c.075 5.474.117 6.043.53 7.159.575 1.556 1.146 2.479 2.309 3.732 1.213 1.307 2.356 2.084 4.087 2.779l1.397.561 19.99.058c22.028.064 21.372.097 23.974-1.219 1.62-.82 3.574-2.779 4.465-4.478 1.327-2.528 1.27-.947 1.274-35.628l.004-31.532h1.724c1.406 0 1.892-.09 2.635-.482 1.133-.6 2.213-1.984 2.384-3.056l.13-.812h2.542c2.5 0 2.55.01 2.97.546l.429.546.003 32.022c.004 35.677-.082 33.493 1.45 36.593 3.947 7.983 14.61 10.01 21.136 4.018 1.54-1.414 2.338-2.475 3.258-4.333 1.301-2.63 1.222.665 1.225-50.581L98 .84l-.545-.43c-.679-.535-1.332-.546-1.964-.033l-.488.395-.103 46.981c-.114 51.775.013 47.095-1.35 49.79-1.666 3.295-6.134 5.67-9.944 5.286-4.607-.464-8.56-4.053-9.36-8.495-.15-.838-.222-11.393-.223-33.138l-.002-31.91-.493-1.059c-.955-2.056-2.57-2.772-6.253-2.772h-2.344v-3.144l3.049.082c2.558.069 3.24.158 4.244.554 1.671.66 3.431 2.338 4.198 4.003l.6 1.301.103 5.846c.1 5.673.117 5.86.557 6.3a1.57 1.57 0 002.193-.002c.445-.446.454-.56.448-6.092-.005-4.833-.06-5.815-.38-6.88-1.2-3.983-4.245-6.974-8.004-7.862-.84-.198-2.364-.314-4.166-.316-2.807-.003-2.842-.009-2.847-.469-.013-1.381-1.748-3.454-3.236-3.868-.434-.121-1.417-.22-2.184-.221l-1.395-.002-.004-2.433c-.002-1.339-.134-3.05-.294-3.805C57.06 4.886 54.563 2.01 50.98.58L49.74.084 29.588.058C18.505.043 9.206.072 8.92.12zm80.326.288l-.543.428-.053 46.328-.054 46.328-.47.88c-.257.484-.855 1.136-1.328 1.45-.736.487-1.07.57-2.336.57-1.682 0-2.545-.435-3.428-1.727l-.499-.729-.103-24.35c-.082-19.242-.159-24.449-.368-24.815-.531-.932-2.17-.836-2.675.156-.208.409-.252 5.51-.211 24.747l.05 24.232.497 1.236c.598 1.487 2.26 3.249 3.644 3.862 1.99.883 4.564.862 6.351-.052 1.357-.693 2.73-2.134 3.381-3.548l.595-1.291.054-46.556L91.803 1l-.509-.51c-.621-.623-1.327-.651-2.048-.083zM14.969 8.17c-3.423.924-5.875 3.41-6.774 6.866-.465 1.79-.465 74.14 0 75.93.91 3.5 3.369 5.965 6.862 6.877.987.257 3.287.309 13.823.309 7.595 0 13.084-.084 13.753-.209 3.66-.684 6.717-3.802 7.4-7.544.314-1.726.314-73.07 0-74.795-.683-3.742-3.74-6.86-7.4-7.545-.675-.126-6.128-.203-13.848-.194-10.275.01-12.943.07-13.816.305zm28.511 3.472c1.448.713 2.702 2.094 3.2 3.526.354 1.017.373 2.936.373 37.833s-.019 36.817-.373 37.834c-.498 1.431-1.752 2.813-3.2 3.525l-1.18.581H15.843l-1.077-.488c-1.343-.608-2.76-2.1-3.28-3.453-.386-1-.396-2.056-.396-37.999 0-35.864.011-37 .394-37.993.706-1.836 2.46-3.36 4.408-3.829.43-.103 6.516-.172 13.592-.153l12.814.035 1.181.581zm-22.173 4.356c-2.135.59-3.93 2.145-4.918 4.255l-.545 1.164-.065 9.734c-.07 10.491 0 11.458.956 13.228.698 1.292 2.31 2.704 3.76 3.293 1.103.448 1.355.462 8.577.46 6.523 0 7.549-.044 8.321-.353 2.13-.854 3.813-2.564 4.54-4.616.332-.938.366-1.991.366-11.184 0-9.142-.036-10.25-.362-11.184-.714-2.038-2.708-4.045-4.665-4.693-1.116-.37-14.685-.458-15.965-.104zm40.135 2.395c.357.441.389.898.389 5.57 0 4.941-.014 5.104-.45 5.57-.384.41-.652.479-1.86.479h-1.41V17.745l1.471.084c1.233.07 1.535.161 1.86.564zm-24.71.886c.96.527 1.936 1.623 2.174 2.441.137.472.19 4.281.15 10.706l-.063 9.974-.633.783c-1.402 1.735-.846 1.637-9.267 1.637h-7.492l-.742-.509c-1.031-.709-1.763-1.926-1.917-3.19-.07-.585-.1-5.119-.063-10.074l.065-9.009.567-.966c.592-1.009 1.608-1.779 2.711-2.053.357-.09 3.626-.145 7.263-.125 5.756.033 6.696.083 7.247.385zM25.93 27.174c-2.135 2.139-2.335 2.405-2.335 3.107 0 .95.587 1.595 1.451 1.595.445 0 .892-.247 1.55-.855l.926-.855v4.029c0 3.944.01 4.038.478 4.48.677.637 1.652.594 2.193-.096.4-.508.429-.813.429-4.48v-3.933l.925.855c1.082 1 1.86 1.114 2.552.375.914-.974.672-1.48-1.982-4.132-3.233-3.23-3.055-3.228-6.187-.09zM21.326 58.09c-2.091.576-3.8 1.935-4.73 3.761-.806 1.583-.884 2.833-.817 13l.065 9.735.55 1.175a7.842 7.842 0 003.657 3.744l1.365.673h7.445c5.407 0 7.68-.072 8.304-.262 2.011-.613 4.038-2.613 4.772-4.709.326-.933.362-2.042.362-11.184 0-9.192-.034-10.246-.367-11.184-.728-2.056-2.427-3.78-4.539-4.607-1.274-.5-14.353-.615-16.067-.142zm15.831 3.52c.314.235.856.78 1.204 1.21l.632.782.063 9.974c.04 6.425-.013 10.235-.15 10.706-.238.818-1.215 1.914-2.174 2.442-.558.306-1.472.347-7.66.347h-7.027l-.977-.575a4.412 4.412 0 01-1.55-1.553l-.574-.979v-9.941c0-10.913-.05-10.45 1.273-11.786 1.132-1.145 1.208-1.154 9.098-1.102 6.986.045 7.293.064 7.842.475zm-9.186 5.747c-.43.458-.45.657-.45 4.48v4l-.925-.856c-.659-.608-1.105-.854-1.55-.854-.864 0-1.451.645-1.451 1.595 0 .7.2.967 2.335 3.106 3.131 3.139 2.954 3.141 6.187-.09 2.057-2.056 2.432-2.529 2.432-3.07 0-.791-.738-1.541-1.517-1.541-.368 0-.875.291-1.485.854l-.925.855v-3.933c0-3.666-.03-3.971-.429-4.48-.56-.713-1.587-.743-2.222-.066z" fill="#231F20"/></svg>
